X:60
T:Farewell to Erin (reel) 
B:CRE1.139 (Slan le hEireann)
F:file ID: cre.1/060fare_e
S:Ned Stapleton
M:C
L:1/8
Q:180
R:reel
K:D
D2D2 FAA2|fedf edBc|dBAF GFGB|AGFD EGFE|
D2FD FAA2|fedf edBc|dBAF GFGB|AGFD EGFE:|
defg afdf|g2fg edBA|defg afdg|feed e3A|
defg afdf|g2fg edBA|dBAF GFGB|AGFD EGFE:|"final"D8||

%%%

